packages/foundations/assets/icons/functional/images/transportation/electric_car_24_inverted.svg

<svg width="24" height="24" viewBox="0 0 24 24" fill="none" xmlns="http://www.w3.org/2000/svg">
<g clip-path="url(#clip0_2214_6728)">
<path fill-rule="evenodd" clip-rule="evenodd" d="M18.9883 6C19.5728 6 20 6.46205 19.9959 7.02325C21.1249 7.02325 22 8 22 9V19C22 20 21 21 20 21H15C14 21 13 20 13 19L12.999 17.97C12.666 17.99 12.333 18 12 18C10.3333 18 8.53333 17.893 6.6 17.679V18C6.6 18.5523 6.15228 19 5.6 19H5C4.44772 19 4 18.5523 4 18L4.00011 16.243C3.63304 15.7114 3.44951 14.2259 3.44951 11.7866C3.41842 11.5172 3.43139 11.2528 3.48269 11.0008L2.64823 11C2.2782 11 2 10.6787 2 10.3107V9.644C2 9.27533 2.2782 9 2.64823 9H4.06L5.00712 4.79305C5.23788 3.80409 6.125 3 7.00142 3H15.4852C16.0065 3 16.31 3.42893 16.31 3.80253C16.31 4.17613 16.0065 4.699 15.5061 4.699C14.8811 4.699 12.1101 4.69933 7.19309 4.7C6.98486 4.7 6.75323 4.84621 6.66265 5.17934L5.805 9L12.999 8.99969C13 8.12786 13.7611 7.00312 15 7.02325C15 6.27157 15.6462 6 16.0065 6H18.9883ZM19.9959 8.71933L15.002 8.72716C14.8652 8.7272 14.7 8.81242 14.7 9.04135V19.0045C14.7 19.1624 14.8207 19.3 15.002 19.3H19.9959C20.1756 19.3 20.3 19.149 20.3 19.0045V9.03353C20.3 8.87811 20.2102 8.71933 19.9959 8.71933ZM9.53566 12.7696C9.03279 12.8702 8.65268 13.3936 8.7512 13.9463C8.83248 14.3632 8.91581 14.7798 9.0012 15.1963C9.08689 15.6248 9.44946 16.0002 10 16.0002L12.999 16V14.001L10.801 14.0012L10.7124 13.5541C10.6118 13.0512 10.0385 12.669 9.53566 12.7696ZM4.51942 12.8039C4.40884 13.3058 4.70434 13.8306 5.30388 13.9806C6.07547 14.1343 6.49214 14.2176 6.55388 14.2306C7.12276 14.3434 7.63001 13.949 7.73058 13.4461C7.83116 12.9432 7.51619 12.3982 6.94612 12.2694L5.81305 12.0529C5.11981 11.9135 4.65588 12.1846 4.51942 12.8039ZM17.3043 11.396C17.5008 11.0314 17.9557 10.8951 18.3203 11.0916C18.6545 11.2718 18.7969 11.669 18.667 12.0148L17.998 13.2693L18.2429 13.2698C18.7768 13.271 19.1737 13.8438 18.8985 14.3809C18.6037 14.915 18.1948 15.6598 17.6717 16.6154C17.4722 16.9784 17.0162 17.111 16.6532 16.9115C16.3204 16.7287 16.1469 16.2775 16.3571 15.893C16.5225 15.594 16.7281 15.2184 16.974 14.7663L16.7423 14.7664C16.2109 14.7652 15.8149 14.202 16.0838 13.6606C16.4894 12.9033 16.8962 12.1484 17.3043 11.396Z" fill="#1A1C1F"/>
</g>
<defs>
<clipPath id="clip0_2214_6728">
<rect width="24" height="24" fill="white"/>
</clipPath>
</defs>
</svg>

<svg xmlns="http://www.w3.org/2000/svg" width="24" height="24" fill="none"><g clip-path="url(#a)"><path fill="#1A1C1F" fill-rule="evenodd" d="M18.988 6a1 1 0 0 1 1.008 1.023C21.125 7.023 22 8 22 9v10c0 1-1 2-2 2h-5c-1 0-2-1-2-2l-.001-1.03q-.5.03-.999.03-2.5 0-5.4-.321V18a1 1 0 0 1-1 1H5a1 1 0 0 1-1-1v-1.757q-.55-.798-.55-4.456A2.5 2.5 0 0 1 3.483 11L2.648 11c-.37 0-.648-.321-.648-.69v-.666A.63.63 0 0 1 2.648 9H4.06l.947-4.207C5.237 3.804 6.125 3 7.001 3h8.484c.521 0 .825.429.825.803 0 .373-.303.896-.804.896L7.193 4.7c-.208 0-.44.146-.53.48L5.805 9h7.194C13 8.128 13.761 7.003 15 7.023 15 6.272 15.646 6 16.006 6zm1.008 2.72-4.994.007c-.137 0-.302.085-.302.314v9.964c0 .157.12.295.302.295h4.994c.18 0 .304-.151.304-.296v-9.97c0-.156-.09-.315-.304-.315m-10.46 4.05c-.503.1-.883.624-.785 1.176q.122.626.25 1.25A.99.99 0 0 0 10 16h2.999v-1.999h-2.198l-.089-.447c-.1-.503-.673-.885-1.176-.784m-5.017.034c-.11.502.185 1.027.785 1.177q1.157.23 1.25.25a1.01 1.01 0 0 0 1.177-.785 1.014 1.014 0 0 0-.785-1.177l-1.133-.216c-.693-.14-1.157.132-1.294.75m12.785-1.408a.75.75 0 0 1 1.363.619l-.669 1.254h.245c.534.002.93.575.656 1.112q-.443.801-1.227 2.234a.75.75 0 0 1-1.019.297.757.757 0 0 1-.296-1.019q.248-.449.617-1.127h-.232a.753.753 0 0 1-.658-1.105q.608-1.137 1.22-2.265" clip-rule="evenodd"/></g><defs><clipPath id="a"><path fill="#fff" d="M0 0h24v24H0z"/></clipPath></defs></svg>
